X:1
T:Here's to You Rounders
M:3/4
L:1/4
K:D
 B B3/2 B/2| B A G| A B3/2 A/2| F E D| E E3/2 E/2| E D A| F3-| F3|\
 B B3/2 B/2| B A G| A B3/2 A/2| F/2- E3/2 D| E F E| D B, D| D3-| D3|\
 F F3/2 F/2| F2 E| E D2-| D2 A,/2A,/2| D2 D| E2 E| D3-| F3| F F F|\
 F E F| B A3/2 A/2| F E D| A,3-| A,2 F| F3/2 F/2 F| F F2| F F3/2 G/2|\
 F/2 E3/2 D| D D D| E D B,| A,3-| A,3| F F3/2 G/2| F E D/2D/2| D3/2 D/2 E|\
 D2 A,/2A,/2| D/2D/2 D2| E2 F| D3-| D3|
